X:79
T:Frog & Mouse - Kitty Alone - Fone
%%VWML:SBG-1-2-637-0
F:http://www.vwml.org/record/SBG/1/2/637
Z:Original Sibelius transcriptions by M. & S. Graebe
M:6/8
I:linebreak $
K:G
V:1 treble nm="P1"
V:1
 B, | E2 F G2 E | FE F B,3 | B, E E E2 D | CA,C A,3 | E2 F G2 A |$ B3/2 B/ B/ B/ d2 | B B B B2 A | %8
w: |||Crock a my daisy _|Kitty _ a- lone|* * * O|Kitty _ a- * lone|Kitty _ a- lone &|
w: |||||there was a f|||
w: ||||||||
w: ||||||||
w: ||||||||
w: ||||or D# Cb B||||
 B6 B | B2 c d2 B | e^de B2 B |$ B2 A G2 E | FEF B,3 | EE B, E2 G | FEF [B,B]3 | GFE F2 ^D E3 | %16
w: I. A|merry _ _ _|_ _ _ _ _||||||
w: ||||||||
w: ||||||||
w: ||||||||
w: ||||||||
w: ||||||||
T:Frog & Mouse - Kitty Alone - Morshead
F:http://www.vwml.org/record/SBG/1/2/637
Z:Original Sibelius transcriptions by M. & S. Graebe
M:6/8
I:linebreak $
K:Bb
V:1 treble nm="P1"
V:1
 F | B2 B F2 F | G2 G F3 | B B Bc df | (d2 c) B2 B/ B/ | F2 F F2 F |$ G2 G F3 | B B Bc df | %8
w: |||Rig- dum bul- li ma- ri-|kim- * o * *|||Rig dum bulli _ ma- ri|
 (d2 c) B3 | B2 d f2 d | B2 d f2 d | B2 d f2 e |$ (d2 c) B3 | B3 B3 | F F/ F F/ G A/ B G/ | F3 F3 | %16
w: kim- * o|kimer _ mari _|keller _ kari _|kimer _ mari _|kim _ er|strim strum!|Panna _ riddle _ hanna _ bunna _|rig- chin|
 B B Bc de | (d2 c) B2 x | %18
w: Rig- dum bulli _ mari _|kim- * o|




